build/category/HandSolid.svg

<svg xmlns="http://www.w3.org/2000/svg" fill="none" viewBox="0 0 24 24" focusable="false"><path d="M0 0H24V24H0z"/><path fill="#74767B" fill-rule="evenodd" d="M13.2065 11.5092L13.2721 2.89857C13.2721 2.78955 13.254 2.68737 13.2179 2.59204C13.1731 2.47379 13.1004 2.36608 13 2.26891C12.9668 2.23701 12.9317 2.2078 12.8946 2.18129C12.8341 2.13797 12.7685 2.10185 12.6976 2.07293C12.6524 2.05446 12.6063 2.03949 12.5594 2.02804C12.4828 2.00935 12.4039 2 12.3227 2C12.2304 2 12.1407 2.01087 12.0538 2.0326C12.004 2.04506 11.955 2.06109 11.907 2.0807C11.8336 2.11065 11.7651 2.14769 11.7016 2.19184C11.6557 2.22376 11.6123 2.25939 11.5715 2.29873C11.5073 2.3607 11.4529 2.42861 11.4082 2.50244C11.3862 2.53886 11.3666 2.57674 11.3494 2.61605C11.324 2.67392 11.3047 2.73312 11.2914 2.79365C11.2767 2.86039 11.2694 2.92873 11.2694 2.99869L11.2583 10.9916C11.2583 11.2643 11.0427 11.4785 10.77 11.4785C10.4973 11.4785 10.2837 11.2643 10.2837 10.9916L10.2955 4.48508C10.2955 4.3745 10.277 4.27103 10.2399 4.17469C10.1952 4.0582 10.1233 3.95212 10.0244 3.85644C9.98598 3.81947 9.94505 3.78613 9.90164 3.75641C9.84557 3.71804 9.78537 3.68571 9.72103 3.65944C9.67581 3.64097 9.62973 3.62601 9.58279 3.61455C9.50618 3.59586 9.42728 3.58651 9.34611 3.58651C9.25484 3.58651 9.16621 3.59715 9.08022 3.61842C9.02947 3.63098 8.97964 3.64723 8.93073 3.6672C8.85753 3.69707 8.78923 3.734 8.72583 3.77799C8.67967 3.81002 8.63611 3.84579 8.59514 3.8853C8.53059 3.94755 8.47594 4.01577 8.43119 4.08996C8.40938 4.12612 8.38993 4.16369 8.37282 4.20269C8.34772 4.25989 8.32852 4.3184 8.31522 4.37823C8.30024 4.44565 8.29274 4.51474 8.29274 4.58549L8.28812 12.2959L8.28812 14.2591C8.28812 14.3426 8.27416 14.4207 8.24623 14.4935C8.21755 14.5682 8.17414 14.6373 8.116 14.7008C8.05392 14.7685 7.9844 14.8197 7.90743 14.8543C7.82894 14.8896 7.74269 14.9076 7.64871 14.9085C7.5864 14.9085 7.5261 14.9008 7.46781 14.8855C7.41869 14.8726 7.37099 14.8543 7.32471 14.8305C7.27692 14.806 7.23297 14.7769 7.19285 14.7432C7.14182 14.7004 7.097 14.6502 7.05838 14.5925L5.07974 11.6527C5.02207 11.5669 4.95507 11.4924 4.87874 11.4291C4.80656 11.3693 4.72603 11.3195 4.63716 11.2798C4.54682 11.2395 4.45452 11.2123 4.36027 11.1984C4.26824 11.1848 4.17435 11.1837 4.07859 11.1953C4.00984 11.2034 3.9432 11.218 3.87865 11.2391C3.78765 11.2687 3.70083 11.3112 3.61818 11.3665C3.55567 11.4087 3.49953 11.4567 3.44978 11.5106C3.4143 11.5491 3.38207 11.5905 3.35308 11.635C3.32221 11.6823 3.2959 11.7316 3.27417 11.7828C3.24845 11.8434 3.22914 11.9067 3.21623 11.9727C3.20318 12.0394 3.19723 12.106 3.19838 12.1725C3.19934 12.2273 3.21175 12.3132 3.22238 12.368C3.24861 12.4816 3.29654 12.5903 3.36617 12.694C4.02636 13.7241 4.72163 14.8032 5.45197 15.9315C6.90953 18.1832 7.81184 19.552 8.15892 20.0379C8.58269 20.6312 9.03254 21.091 9.50847 21.4174C9.87095 21.6659 10.2518 21.8387 10.6512 21.9357C10.8267 21.9783 11.0058 22.0063 11.1885 22.0197L15.749 22.0197C15.9832 22.0027 16.2118 21.9645 16.4347 21.905C16.6509 21.8473 16.8618 21.7695 17.0674 21.6717C17.244 21.5876 17.4121 21.4911 17.5716 21.382C17.7828 21.2376 17.979 21.0712 18.1602 20.8828C18.3212 20.7155 18.4648 20.5366 18.591 20.3462C18.7145 20.1597 18.8214 19.9621 18.9115 19.7534C18.994 19.5624 19.0602 19.3673 19.11 19.1681C19.1731 18.9162 19.21 18.6577 19.2207 18.3927L19.2246 12.2959L19.2246 7.32308C19.2246 7.21251 19.206 7.10905 19.169 7.0127C19.1242 6.89621 19.0524 6.79013 18.9535 6.69445C18.9151 6.65749 18.8742 6.62416 18.8308 6.59446C18.7747 6.55607 18.7145 6.52373 18.6501 6.49744C18.6049 6.47897 18.5588 6.464 18.5118 6.45255C18.4352 6.43386 18.3563 6.42451 18.2752 6.42451C18.1839 6.42451 18.0953 6.43515 18.0093 6.45643C17.9585 6.46898 17.9087 6.48524 17.8598 6.5052C17.7866 6.53507 17.7183 6.57199 17.6549 6.61597C17.6088 6.64801 17.5652 6.68378 17.5242 6.7233C17.4596 6.78557 17.405 6.85382 17.3602 6.92804C17.3384 6.96417 17.319 7.00172 17.3019 7.04069C17.2763 7.09895 17.2569 7.15854 17.2436 7.21947C17.2291 7.28579 17.2218 7.35371 17.2218 7.4232L17.2218 11.9879C17.2218 12.2606 17.0076 12.4748 16.7349 12.4748C16.4622 12.4748 16.248 12.2606 16.248 11.9879L16.248 4.27868C16.248 4.16965 16.2299 4.06747 16.1937 3.97214C16.1489 3.85389 16.0763 3.74619 15.9758 3.64902C15.9427 3.61715 15.9076 3.58797 15.8706 3.56147C15.8101 3.51811 15.7444 3.48196 15.6735 3.453C15.6267 3.4339 15.5791 3.41855 15.5306 3.40695C15.4556 3.38906 15.3785 3.38011 15.2993 3.38011C15.207 3.38011 15.1173 3.39098 15.0304 3.41271C14.9806 3.42517 14.9316 3.4412 14.8836 3.46081C14.8102 3.49075 14.7417 3.5278 14.6782 3.57194C14.6323 3.60386 14.5889 3.63949 14.5481 3.67884C14.4839 3.74081 14.4295 3.80871 14.3849 3.88254C14.3628 3.91897 14.3432 3.95684 14.326 3.99616C14.3006 4.05403 14.2813 4.11323 14.268 4.17376C14.2533 4.24049 14.246 4.30884 14.246 4.3788L14.1812 11.5092C14.1812 11.7819 13.9675 11.9962 13.6948 11.9962C13.4221 11.9962 13.2065 11.7819 13.2065 11.5092Z"/></svg>

<svg xmlns="http://www.w3.org/2000/svg" fill="none" viewBox="0 0 24 24" focusable="false"><path fill="none" d="M0 0h24v24H0z"/><path fill="#74767B" fill-rule="evenodd" d="m13.2 11.5.07-8.61a.7.7 0 0 0-.06-.3.84.84 0 0 0-.21-.33c-.04-.03-.07-.06-.11-.08-.06-.05-.13-.08-.2-.11a.6.6 0 0 0-.14-.05C12.48 2 12.4 2 12.32 2q-.135 0-.27.03a1 1 0 0 0-.15.05c-.07.03-.14.06-.2.11-.05.03-.09.06-.13.1a1.1 1.1 0 0 0-.23.32c-.02.06-.04.12-.05.18-.02.07-.03.13-.03.2l-.01 8c0 .27-.21.48-.48.48-.28 0-.49-.21-.49-.48l.01-6.51c0-.11-.02-.21-.05-.31a1 1 0 0 0-.22-.32c-.04-.04-.08-.07-.12-.1-.06-.04-.12-.07-.18-.1-.05-.01-.1-.03-.14-.04a1.09 1.09 0 0 0-.5 0c-.06.02-.11.03-.15.05-.08.03-.15.07-.21.11-.05.04-.09.07-.13.11-.06.06-.12.13-.16.2q-.045.06-.06.12c-.03.05-.05.11-.06.17-.01.07-.02.14-.02.21l-.01 7.71v1.96c0 .09-.01.17-.04.24a.8.8 0 0 1-.13.21.8.8 0 0 1-.21.15c-.08.03-.16.05-.26.05-.06 0-.12 0-.18-.02-.05-.01-.09-.03-.14-.05-.05-.03-.09-.06-.13-.09a.7.7 0 0 1-.14-.15l-1.98-2.94a.9.9 0 0 0-.2-.23 1 1 0 0 0-.24-.15c-.09-.04-.18-.06-.27-.08-.1-.01-.19-.01-.29 0-.07.01-.13.02-.2.04-.09.03-.17.08-.26.13-.06.04-.12.09-.17.15-.03.03-.06.08-.09.12-.03.05-.06.1-.08.15-.03.06-.05.12-.06.19-.01.06-.02.13-.02.2 0 .05.02.14.03.19.02.12.07.23.14.33.66 1.03 1.36 2.11 2.09 3.24 1.45 2.25 2.36 3.62 2.7 4.1q.645.9 1.35 1.38c.37.25.75.42 1.15.52.17.04.35.07.53.08h4.56c.24-.01.47-.05.69-.11s.43-.14.63-.23c.18-.09.35-.18.51-.29.21-.15.4-.31.59-.5.16-.17.3-.35.43-.54.12-.19.23-.38.32-.59.08-.19.15-.39.2-.59.06-.25.09-.51.11-.77V7.32c0-.11-.02-.22-.06-.31a.8.8 0 0 0-.21-.32 1 1 0 0 0-.12-.1c-.06-.04-.12-.07-.18-.1-.05-.02-.1-.03-.14-.04a1 1 0 0 0-.24-.03q-.135 0-.27.03a1 1 0 0 0-.15.05c-.07.03-.14.07-.2.11-.05.03-.09.07-.13.11-.07.06-.12.13-.16.2q-.045.06-.06.12c-.03.05-.05.11-.06.17-.02.07-.02.14-.02.21v4.56c0 .28-.22.49-.49.49s-.49-.21-.49-.49V4.27c0-.11-.01-.21-.05-.3-.05-.12-.12-.23-.22-.33a1 1 0 0 0-.1-.08c-.06-.05-.13-.08-.2-.11-.05-.02-.1-.04-.14-.05-.08-.02-.16-.02-.24-.02a1.1 1.1 0 0 0-.41.08c-.07.03-.14.06-.21.11-.04.03-.09.06-.13.1-.06.07-.12.13-.16.21-.02.03-.04.07-.06.11l-.06.18c-.01.07-.02.13-.02.2l-.06 7.13c0 .28-.22.49-.49.49s-.49-.21-.49-.49"/></svg>
